icons/CircleX_filled_transparent.svg

<svg width="24" height="24" viewBox="0 0 24 24" fill="none" xmlns="http://www.w3.org/2000/svg">
<path fill-rule="evenodd" clip-rule="evenodd" d="M21.75,12c0,5.3848 -4.3652,9.75 -9.75,9.75c-5.38478,0 -9.75,-4.3652 -9.75,-9.75c0,-5.38478 4.36522,-9.75 9.75,-9.75c5.3848,0 9.75,4.36522 9.75,9.75zM15.0303,10.0303c0.2929,-0.29287 0.2929,-0.76774 0,-1.06063c-0.2929,-0.2929 -0.7677,-0.2929 -1.0606,0l-1.9697,1.96963l-1.9697,-1.9696c-0.29286,-0.2929 -0.76773,-0.2929 -1.06062,0c-0.2929,0.29289 -0.2929,0.76777 0,1.0607l1.96962,1.9696l-1.96962,1.9697c-0.2929,0.2929 -0.2929,0.7677 0,1.0606c0.29289,0.2929 0.76776,0.2929 1.06062,0l1.9697,-1.9696l1.9697,1.9696c0.2929,0.2929 0.7677,0.2929 1.0606,0c0.2929,-0.2929 0.2929,-0.7677 0,-1.0606l-1.9696,-1.9697z" fill="#002B51"/>
</svg>

<svg width="24" height="24" viewBox="0 0 24 24" fill="none" xmlns="http://www.w3.org/2000/svg">
<path fill-rule="evenodd" clip-rule="evenodd" d="M12 2.25C6.61522 2.25 2.25 6.61522 2.25 12C2.25 17.3848 6.61522 21.75 12 21.75C17.3848 21.75 21.75 17.3848 21.75 12C21.75 6.61522 17.3848 2.25 12 2.25ZM15.0303 10.0303C15.3232 9.73743 15.3232 9.26256 15.0303 8.96967C14.7374 8.67677 14.2626 8.67677 13.9697 8.96967L12 10.9393L10.0303 8.9697C9.73744 8.6768 9.26257 8.6768 8.96968 8.9697C8.67678 9.26259 8.67678 9.73747 8.96968 10.0304L10.9393 12L8.96968 13.9697C8.67678 14.2626 8.67678 14.7374 8.96968 15.0303C9.26257 15.3232 9.73744 15.3232 10.0303 15.0303L12 13.0607L13.9697 15.0303C14.2626 15.3232 14.7374 15.3232 15.0303 15.0303C15.3232 14.7374 15.3232 14.2626 15.0303 13.9697L13.0607 12L15.0303 10.0303Z" fill="#002B51"/>
</svg>
